source/img/icon-confidentiality.svg

<svg width="35" height="35" fill="#00B2FF" xmlns="http://www.w3.org/2000/svg">
<path d="M17.5 13.7582C17.1227 13.7582 16.8164 14.0752 16.8164 14.4663C16.8164 14.8571 17.1227 15.1743 17.5 15.1743C17.8773 15.1743 18.1836 14.8571 18.1836 14.4663C18.1836 14.0752 17.8773 13.7582 17.5 13.7582Z"/>
<path d="M32.9492 18.0066H30.2893C28.8872 13.8595 26.8527 6.58774 23.1672 4.52967C21.3239 3.5016 19.5815 4.21962 18.9262 5.67833C18.6474 6.29844 18.0907 6.62453 17.5 6.62453C16.9013 6.62453 16.3491 6.29124 16.0738 5.67888C15.4417 4.26996 13.741 3.48611 11.9624 4.38031C8.21781 6.26386 6.12377 13.8282 4.71066 18.0066H2.05078C0.917778 18.0066 0 18.9569 0 20.1308C0 21.3018 0.919914 22.2549 2.05078 22.2549H32.9492C34.0822 22.2549 35 21.3043 35 20.1308C35 18.9594 34.0801 18.0066 32.9492 18.0066V18.0066ZM7.11205 15.1743H14.7656C15.1432 15.1743 15.4492 14.8571 15.4492 14.4663C15.4492 14.0752 15.1432 13.7582 14.7656 13.7582H7.59003C9.65069 7.86225 11.5757 6.14908 12.5594 5.65427C13.6326 5.11493 14.516 5.56631 14.8343 6.27603C15.3357 7.39178 16.3731 8.04065 17.5 8.04065C18.6295 8.04065 19.6656 7.38929 20.1657 6.27603C20.4934 5.54612 21.3813 5.14203 22.5185 5.77624C23.5068 6.32831 25.4259 8.09845 27.4097 13.7582H20.2344C19.8568 13.7582 19.5508 14.0752 19.5508 14.4663C19.5508 14.8574 19.8568 15.1743 20.2344 15.1743H27.8882C28.2338 16.2066 28.5926 17.2717 28.841 18.0066H6.15929C6.40682 17.2736 6.76491 16.211 7.11205 15.1743V15.1743ZM32.9492 20.8388H2.05078C1.67374 20.8388 1.36719 20.521 1.36719 20.1308C1.36719 19.7397 1.6732 19.4227 2.05078 19.4227H32.9492C33.3263 19.4227 33.6328 19.7402 33.6328 20.1308C33.6328 20.5216 33.3265 20.8388 32.9492 20.8388Z"/>
<path d="M16.1328 25.0873H5.19531C4.81773 25.0873 4.51172 25.4042 4.51172 25.7953V28.6275C4.51172 32.1413 7.27173 35.0001 10.6641 35.0001C13.2345 35.0001 15.5096 33.3624 16.4145 30.8953C17.1019 30.5706 17.8981 30.5706 18.5855 30.8953C19.4904 33.3624 21.7655 34.9998 24.3359 34.9998C27.7283 34.9998 30.4883 32.1413 30.4883 28.6273V25.795C30.4883 25.4039 30.1823 25.087 29.8047 25.087H18.8672C18.4896 25.087 18.1836 25.4039 18.1836 25.795V26.5031H16.8164V25.795C16.8164 25.4042 16.5104 25.0873 16.1328 25.0873V25.0873ZM10.6641 33.584C8.02555 33.584 5.87891 31.3605 5.87891 28.6275V26.5034H15.4492V28.6275C15.4492 31.3677 13.3141 33.584 10.6641 33.584ZM19.5508 26.5034H29.1211V28.6275C29.1211 31.3605 26.9744 33.584 24.3359 33.584C21.6793 33.584 19.5508 31.361 19.5508 28.6275V26.5034ZM18.1836 27.9195V28.6275C18.1836 28.8538 18.1961 29.0792 18.2188 29.303C17.7438 29.2131 17.2562 29.2131 16.7812 29.303C16.8039 29.0792 16.8164 28.8538 16.8164 28.6275V27.9195H18.1836Z"/>
<path d="M10.6641 30.7516C9.5332 30.7516 8.61328 29.7985 8.61328 28.6274C8.61328 28.2363 8.30727 27.9194 7.92969 27.9194C7.55211 27.9194 7.24609 28.2363 7.24609 28.6274C7.24609 30.5793 8.77937 32.1677 10.6641 32.1677C11.0416 32.1677 11.3477 31.8505 11.3477 31.4597C11.3477 31.0686 11.0416 30.7516 10.6641 30.7516Z"/>
<path d="M24.3359 32.1677C26.2206 32.1677 27.7539 30.5793 27.7539 28.6274C27.7539 28.2363 27.4479 27.9194 27.0703 27.9194C26.6927 27.9194 26.3867 28.2363 26.3867 28.6274C26.3867 29.7985 25.4668 30.7516 24.3359 30.7516C23.9584 30.7516 23.6523 31.0686 23.6523 31.4597C23.6523 31.8505 23.9584 32.1677 24.3359 32.1677Z"/>
</svg>

<svg width="35" height="35" fill="#00B2FF" xmlns="http://www.w3.org/2000/svg"><path d="M17.5 13.758a.696.696 0 00-.684.708c0 .391.307.708.684.708a.696.696 0 00.684-.708.696.696 0 00-.684-.708z"/><path d="M32.95 18.007h-2.66c-1.403-4.148-3.437-11.42-7.123-13.477-1.843-1.028-3.586-.31-4.24 1.148-.28.62-.836.947-1.427.947-.599 0-1.15-.334-1.426-.946-.632-1.409-2.333-2.193-4.112-1.299-3.744 1.884-5.838 9.448-7.251 13.627H2.05c-1.132 0-2.05.95-2.05 2.123 0 1.17.92 2.124 2.05 2.124h30.9c1.132 0 2.05-.95 2.05-2.124 0-1.172-.92-2.124-2.05-2.124zM7.111 15.174h7.654a.696.696 0 00.683-.708.696.696 0 00-.683-.708H7.59c2.06-5.896 3.986-7.609 4.97-8.104 1.073-.54 1.956-.088 2.274.622.502 1.116 1.54 1.765 2.666 1.765 1.13 0 2.166-.652 2.666-1.765.327-.73 1.215-1.134 2.352-.5.989.552 2.908 2.322 4.892 7.982h-7.176a.696.696 0 00-.683.708c0 .391.306.708.683.708h7.654c.346 1.033.705 2.098.953 2.833H6.159c.248-.733.606-1.796.953-2.833zm25.837 5.665H2.051a.697.697 0 01-.684-.708c0-.391.306-.708.684-.708h30.898c.377 0 .684.317.684.708 0 .39-.306.708-.684.708zm-16.815 4.248H5.195a.696.696 0 00-.683.708v2.832c0 3.514 2.76 6.373 6.152 6.373 2.57 0 4.846-1.638 5.75-4.105a2.541 2.541 0 012.171 0c.905 2.467 3.18 4.105 5.75 4.105 3.393 0 6.153-2.859 6.153-6.373v-2.832a.696.696 0 00-.683-.708H18.867a.696.696 0 00-.683.708v.708h-1.368v-.708a.696.696 0 00-.683-.708zm-5.469 8.497c-2.638 0-4.785-2.224-4.785-4.957v-2.124h9.57v2.125c0 2.74-2.135 4.956-4.785 4.956zm8.887-7.08h9.57v2.123c0 2.733-2.147 4.957-4.785 4.957-2.657 0-4.785-2.223-4.785-4.957v-2.124zm-1.367 1.415v.709c0 .226.012.451.035.675a3.865 3.865 0 00-1.438 0 6.62 6.62 0 00.035-.675v-.709h1.368z"/><path d="M10.664 30.752c-1.13 0-2.05-.953-2.05-2.125a.696.696 0 00-.684-.708.696.696 0 00-.684.708c0 1.952 1.533 3.54 3.418 3.54a.696.696 0 00.684-.707.696.696 0 00-.684-.708zm13.672 1.416c1.885 0 3.418-1.589 3.418-3.54a.696.696 0 00-.684-.709.696.696 0 00-.683.708c0 1.172-.92 2.125-2.051 2.125a.696.696 0 00-.684.708c0 .39.306.708.684.708z"/></svg>
